public/icons/icon/tool-frame.svg

<svg width="30" height="30" viewBox="0 0 30 30" fill="none" xmlns="http://www.w3.org/2000/svg">
<path d="M10.2 27H5C3.89543 27 3 26.1046 3 25V19.8M19.8 27H25C26.1046 27 27 26.1046 27 25V19.8M3 10.2V5C3 3.89543 3.89543 3 5 3H10.2M19.8 3H25C26.1046 3 27 3.89543 27 5V10.2" stroke="black" stroke-width="2" stroke-linecap="round" stroke-linejoin="round"/>
</svg>

<svg xmlns="http://www.w3.org/2000/svg" width="30" height="30" fill="none"><path stroke="#000" stroke-linecap="round" stroke-linejoin="round" stroke-width="2" d="M10.2 27H5a2 2 0 0 1-2-2v-5.2M19.8 27H25a2 2 0 0 0 2-2v-5.2M3 10.2V5a2 2 0 0 1 2-2h5.2m9.6 0H25a2 2 0 0 1 2 2v5.2"/></svg>
